X:1
T:Valse À Mary
C:B. Loffet
L:1/8
Q:260
M:3/4
K:C
|:[AA,]c[eA,]d[dA,]c|[A2A,2]A,B[cA,]d|[eC,]c[gC,]^f[dD,]f|[e2E,2]E,d[B2E,2]|[AA,]c[eA,]d[dA,]c|[A2A,2]A,B[cA,]d|[e2C,2][dC,]c[dC,]e|[B2E,2]E,2E,2:|:[fF,]e[fF,]a[gF,]e| \
[c2A,2]A,B[A2A,2]|[dD,]c[dD,]e[^fD,]d|[e2E,2][eE,]d[B2E,2]|[fF,]e[fF,]a[gF,]e|[c2A,2]A,B[AA,]c|[eC,]e[dC,]c[dD,]^f|[e2E,2]E,2E,2:|[AA,]c[eA,]d[dA,]c| \
[A2A,2]A,2A,2| \
Z:Created with TablEdit http://www.tabledit.com/, abc file by Bernard Loffet
